img/svg/net/webianshell.svg

<?xml version="1.0" encoding="iso-8859-1"?>
<!-- Generator: Adobe Illustrator 21.0.2, SVG Export Plug-In . SVG Version: 6.00 Build 0)  -->
<svg version="1.1" id="&#x56FE;&#x5C42;_1" xmlns="http://www.w3.org/2000/svg" xmlns:xlink="http://www.w3.org/1999/xlink" x="0px"
	 y="0px" viewBox="0 0 16 16" style="enable-background:new 0 0 16 16;" xml:space="preserve">
<path d="M13.5,1h-11C1.672,1,1,1.672,1,2.5v11C1,14.328,1.672,15,2.5,15h11c0.828,0,1.5-0.672,1.5-1.5v-11C15,1.672,14.328,1,13.5,1
	z M13.718,4.851c-0.713,2.355-1.375,4.475-2.258,6.57c-0.157,0.372-0.472,0.57-0.911,0.572c-0.003,0-0.007,0-0.01,0
	c-0.465,0-0.78-0.212-0.939-0.631C9.398,10.83,9.23,10.271,9.068,9.729c-0.064-0.217-0.129-0.435-0.197-0.65
	c-0.126-0.407-0.25-0.815-0.375-1.223c0,0-0.162-0.529-0.25-0.819C8.164,6.765,7.731,6.773,7.659,7.021
	C7.587,7.269,7.306,8.262,7.306,8.262c-0.24,0.846-0.479,1.692-0.73,2.535c-0.214,0.724-0.41,1.199-1.136,1.199
	c-0.003,0-0.007,0-0.01,0c-0.709-0.006-1-0.444-1.238-1.15c-0.55-1.632-1.096-3.265-1.641-4.898L2.402,5.501
	c-0.043-0.13-0.085-0.262-0.111-0.397C2.159,4.396,2.36,4.175,2.703,4.061c0.111-0.037,0.214-0.055,0.31-0.055
	c0.1,0,0.19,0.02,0.271,0.061C3.509,4.18,3.634,4.439,3.699,4.636c0.204,0.619,0.388,1.245,0.573,1.87
	c0.093,0.316,0.187,0.633,0.282,0.948C4.67,7.835,4.79,8.216,4.935,8.68l0.441,1.407L6.02,7.941c0.3-0.991,0.578-1.91,0.833-2.835
	c0.22-0.793,0.525-1.092,1.128-1.1c0.007,0,0.014,0,0.02,0c0.614,0,0.852,0.386,1.052,1.05l1.522,5.068l0.608-2.023
	c0.249-0.83,0.477-1.588,0.707-2.345l0.094-0.318c0.1-0.34,0.203-0.692,0.342-1.014c0.206-0.478,0.596-0.463,0.882-0.367
	C13.413,4.126,13.873,4.34,13.718,4.851z"/>
</svg>

<svg xmlns="http://www.w3.org/2000/svg" viewBox="0 0 16 16"><title>webianshell</title><path d="M13.5,1H2.5A1.5,1.5,0,0,0,1,2.5v11A1.5,1.5,0,0,0,2.5,15h11A1.5,1.5,0,0,0,15,13.5V2.5A1.5,1.5,0,0,0,13.5,1Zm.22,3.85a65.7,65.7,0,0,1-2.26,6.57.92.92,0,0,1-.91.57h0a.92.92,0,0,1-.94-.63c-.2-.53-.37-1.09-.53-1.63l-.2-.65L8.5,7.86,8.25,7a.32.32,0,0,0-.59,0L7.31,8.26c-.24.85-.48,1.69-.73,2.53S6.17,12,5.44,12h0c-.71,0-1-.44-1.24-1.15Q3.37,8.4,2.55,5.95L2.4,5.5a3,3,0,0,1-.11-.4c-.13-.71.07-.93.41-1A1,1,0,0,1,3,4a.59.59,0,0,1,.27.06,1,1,0,0,1,.42.57c.2.62.39,1.24.57,1.87l.28.95.38,1.23.44,1.41L6,7.94c.3-1,.58-1.91.83-2.83S7.38,4,8,4H8c.61,0,.85.39,1.05,1.05l1.52,5.07.61-2,.71-2.35L12,5.44a8.86,8.86,0,0,1,.34-1,.64.64,0,0,1,.88-.37A.64.64,0,0,1,13.72,4.85Z"/></svg>
